icons/svg/32x32/bookmark/outline.svg

<svg xmlns="http://www.w3.org/2000/svg" width="32" height="32" viewBox="0 0 32 32">
  <path fill-rule="evenodd" d="M21,2 L11,2 C9.343,2 8,3.343 8,5 L8,30 L16,25 L24,30 L24,5 C24,3.343 22.657,2 21,2 M21,4 C21.552,4 22,4.448 22,5 L22,26.392 L17.06,23.304 C16.735,23.102 16.368,23 16,23 C15.632,23 15.265,23.102 14.94,23.304 L10,26.392 L10,5 C10,4.448 10.448,4 11,4 L21,4"/>
</svg>

<svg width="32" height="32" fill="none" xmlns="http://www.w3.org/2000/svg">
  <path fill-rule="evenodd" clip-rule="evenodd" d="M21 2H11a3 3 0 00-3 3v25l8-5 8 5V5a3 3 0 00-3-3zm0 2a1 1 0 011 1v21.392l-4.94-3.088a2.006 2.006 0 00-2.12 0L10 26.392V5a1 1 0 011-1h10z" fill="#000"/>
</svg>
